;FLAVOR:Marlin
;TIME:16923
;Filament used: 12.7313m
;Layer height: 0.2
;MINX:59.4
;MINY:78.96
;MINZ:0.2
;MAXX:160.6
;MAXY:140.94
;MAXZ:91
;Generated with Cura_SteamEngine 4.11.0
M140 S60
M105
M190 S60
M104 S205
M105
M109 S205
M82 ;absolute extrusion mode
M201 X500.00 Y500.00 Z100.00 E5000.00 ;Setup machine max acceleration
M203 X500.00 Y500.00 Z10.00 E50.00 ;Setup machine max feedrate
M204 P500.00 R1000.00 T500.00 ;Setup Print/Retract/Travel acceleration
M205 X8.00 Y8.00 Z0.40 E5.00 ;Setup Jerk
M220 S100 ;Reset Feedrate
M221 S100 ;Reset Flowrate

G28 ;Home

G92 E0 ;Reset Extruder
G1 Z2.0 F3000 ;Move Z Axis up
G1 X10.1 Y20 Z0.28 F5000.0 ;Move to start position
G1 X10.1 Y200.0 Z0.28 F1500.0 E15 ;Draw the first line
G1 X10.4 Y200.0 Z0.28 F5000.0 ;Move to side a little
G1 X10.4 Y20 Z0.28 F1500.0 E30 ;Draw the second line
G92 E0 ;Reset Extruder
G1 Z2.0 F3000 ;Move Z Axis up

G92 E0
G92 E0
G1 F2700 E-4
;LAYER_COUNT:455
;LAYER:0
M107
G0 F6000 X129.55 Y108.925 Z0.2
;TYPE:SKIRT
G1 F2700 E0
G1 F300 X135.95 Y108.925 E0.21286
G1 X135.95 Y124.677 E0.73678
G1 X131.213 Y127.876 E0.92689
G1 X130.779 Y128.216 E0.94523
G1 X130.298 Y128.747 E0.96906
G1 X129.55 Y129.745 E1.01054
G1 X129.55 Y108.925 E1.70302
G0 F6000 X129.15 Y108.525
G1 F300 X136.35 Y108.525 E1.94249
G1 X136.35 Y124.889 E2.48676
G1 X131.436 Y128.207 E2.68397
G1 X131.028 Y128.531 E2.7013
G1 X130.618 Y128.986 E2.72167
G1 X129.753 Y130.14 E2.76964
G1 X129.678 Y130.17 E2.77232
G1 X129.209 Y130.398 E2.78967
G1 X129.15 Y130.439 E2.79206
G1 X129.15 Y108.525 E3.52092
G0 F6000 X128.75 Y108.125
G1 F300 X136.75 Y108.125 E3.787
G1 X136.75 Y125.102 E4.35166
G1 X131.66 Y128.539 E4.55593
G1 X131.278 Y128.845 E4.57221
G1 X130.938 Y129.226 E4.5892
G1 X130.006 Y130.471 E4.64092
G1 X129.825 Y130.542 E4.64739
G1 X129.386 Y130.758 E4.66366
G1 X128.988 Y131.044 E4.67996
G1 X128.75 Y131.282 E4.69116
G1 X128.75 Y108.125 E5.46136
G0 F6000 X128.35 Y107.725
G1 F300 X137.15 Y107.725 E5.75405
G1 X137.15 Y125.314 E6.33907
G1 X131.884 Y128.87 E6.55041
G1 X131.53 Y129.157 E6.56556
G1 X131.258 Y129.466 E6.57926
G1 X130.258 Y130.801 E6.63473
G1 X129.972 Y130.914 E6.64496
G1 X129.565 Y131.118 E6.6601
G1 X129.199 Y131.39 E6.67527
G1 X128.887 Y131.722 E6.69042
G1 X128.609 Y132.158 E6.70762
G1 X128.429 Y132.514 E6.72089
G1 X128.35 Y132.712 E6.72798
G1 X128.35 Y107.725 E7.55905
G0 F6000 X127.95 Y107.325
G1 F300 X137.55 Y107.325 E7.87835
G1 X137.55 Y125.527 E8.48375
G1 X132.108 Y129.202 E8.70216
G1 X131.785 Y129.468 E8.71608
G1 X131.578 Y129.706 E8.72657
G1 X130.511 Y131.13 E8.78575
G1 X130.119 Y131.285 E8.79977
G1 X129.746 Y131.476 E8.81371
G1 X129.416 Y131.734 E8.82764
G1 X129.14 Y132.05 E8.84159
G1 X128.966 Y132.338 E8.85279
G1 X128.786 Y132.694 E8.86605
G1 X128.633 Y133.085 E8.88002
G1 X128.557 Y133.497 E8.89395
G1 X128.561 Y133.916 E8.90789
G1 X128.623 Y134.252 E8.91925
G1 X128.717 Y134.608 E8.9315
G1 X128.665 Y134.764 E8.93697
G1 X128.57 Y135.172 E8.9509
G1 X128.55 Y135.464 E8.96064
G1 X128.55 Y138.075 E9.04748
G1 X127.95 Y138.076 E9.06744
G1 X127.95 Y107.325 E10.09022
G0 F6000 X127.55 Y106.925
G1 F300 X137.95 Y106.925 E10.43612
G1 X137.95 Y125.74 E11.06191
G1 X132.332 Y129.533 E11.28737
G1 X132.042 Y129.777 E11.29997
G1 X131.898 Y129.946 E11.30736
G1 X130.764 Y131.46 E11.37027
G1 X130.266 Y131.657 E11.38809
G1 X129.931 Y131.833 E11.40067
G1 X129.639 Y132.075 E11.41329
G1 X129.323 Y132.519 E11.43141
G1 X129.143 Y132.875 E11.44468
G1 X129.008 Y133.229 E11.45728
G1 X128.951 Y133.604 E11.4699
G1 X129.009 Y134.149 E11.48813
G1 X129.135 Y134.622 E11.50441
G1 X129.044 Y134.891 E11.51385
G1 X128.962 Y135.261 E11.52646
G1 X128.95 Y135.464 E11.53322
G1 X128.95 Y138.475 E11.63337
G1 X127.55 Y138.476 E11.67993
G1 X127.55 Y106.925 E12.72932
G0 F6000 X127.15 Y106.525
G1 F300 X138.35 Y106.525 E13.10183
G1 X138.35 Y125.953 E13.74801
G1 X132.556 Y129.865 E13.98053
G1 X132.219 Y130.186 E13.99601
G1 X131.017 Y131.79 E14.06268
G1 X130.414 Y132.029 E14.08425
G1 X130.12 Y132.188 E14.09537
G1 X129.872 Y132.413 E14.10651
G1 X129.68 Y132.699 E14.11797
G1 X129.5 Y133.055 E14.13123
G1 X129.386 Y133.369 E14.14235
G1 X129.349 Y133.701 E14.15346
G1 X129.396 Y134.046 E14.16504
G1 X129.552 Y134.634 E14.18527
G1 X129.423 Y135.018 E14.19874
G1 X129.35 Y135.464 E14.21377
G1 X129.35 Y138.875 E14.32723
G1 X127.15 Y138.876 E14.4004
G1 X127.15 Y106.525 E15.4764
G0 F6000 X126.75 Y106.125
G1 F300 X138.75 Y106.125 E15.87552
G1 X138.75 Y126.164 E16.54202
G1 X132.779 Y130.196 E16.78165
G1 X132.539 Y130.425 E16.79268
G1 X131.268 Y132.121 E16.86318
G1 X130.561 Y132.401 E16.88847
G1 X130.316 Y132.541 E16.89785
G1 X130.12 Y132.744 E16.90724
G1 X130.037 Y132.88 E16.91254
G1 X129.857 Y133.236 E16.92581
G1 X129.766 Y133.503 E16.93519
G1 X129.754 Y133.785 E16.94458
G1 X129.783 Y133.944 E16.94995
G1 X129.97 Y134.647 E16.97415
G1 X129.802 Y135.146 E16.99166
G1 X129.75 Y135.464 E17.00238
G1 X129.75 Y139.275 E17.12913
G1 X126.75 Y139.276 E17.22891
G1 X126.75 Y106.125 E18.33152
G0 F6000 X126.35 Y105.725
G1 F300 X139.15 Y105.725 E18.75725
G1 X139.15 Y126.329 E19.44254
G1 X139.074 Y126.428 E19.44669
G1 X133.003 Y130.528 E19.69035
G1 X132.859 Y130.665 E19.69696
G1 X131.521 Y132.451 E19.77118
G1 X130.708 Y132.773 E19.80026
G1 X130.523 Y132.889 E19.80753
G1 X130.394 Y133.06 E19.81465
G1 X130.214 Y133.416 E19.82792
G1 X130.152 Y133.626 E19.8352
G1 X130.169 Y133.841 E19.84238
G1 X130.387 Y134.661 E19.8706
G1 X130.181 Y135.273 E19.89207
G1 X130.15 Y135.464 E19.89851
G1 X130.15 Y139.675 E20.03857
G1 X126.35 Y139.676 E20.16496
G1 X126.35 Y105.725 E21.29417
G0 F6000 X125.95 Y105.325
G1 F300 X139.55 Y105.325 E21.74651
G1 X139.55 Y126.462 E22.44953
G1 X139.353 Y126.722 E22.46038
G1 X133.227 Y130.859 E22.70624
G1 X133.179 Y130.905 E22.70845
G1 X131.773 Y132.782 E22.78645
G1 X130.855 Y133.145 E22.81929
G1 X130.751 Y133.241 E22.82399
G1 X130.571 Y133.597 E22.83726
G1 X130.556 Y133.738 E22.84198
G1 X130.804 Y134.673 E22.87415
G1 X130.56 Y135.4 E22.89966
G1 X130.55 Y135.464 E22.90181
G1 X130.55 Y139.948 E23.05095
G1 X130.423 Y140.075 E23.05692
G1 X125.95 Y140.076 E23.2057
G1 X125.95 Y105.325 E24.36152
G1 F2700 E20.36152
G0 F6000 X129.95 Y108.46
G0 X129.95 Y109.325
;TYPE:SUPPORT
G1 F2700 E24.36152
G1 F300 X135.55 Y109.325 E24.54778
G1 X135.55 Y124.464 E25.0513
G1 X130.402 Y127.94 E25.2579
G1 X129.95 Y128.543 E25.28297
G1 X129.95 Y109.325 E25.92216
G0 F6000 X130.35 Y109.725
G1 F300 X135.15 Y109.725 E26.08181
G1 X135.15 Y124.251 E26.56494
G1 X130.35 Y127.492 E26.75758
G1 X130.35 Y109.725 E27.34851
G0 F6000 X130.43 Y112
G1 F300 X135.07 Y112 E27.50284
G1 F2700 E23.50284
G0 F6000 X136.415 Y112
G0 X136.415 Y120
G0 X135.07 Y120
G1 F2700 E27.50284
G1 F300 X130.429 Y120 E27.6572
G1 F2700 E23.6572
;MESH:1x  Y Axis Limit Switch and Drag Chain Mount.stl
G0 F6000 X129.085 Y120
G0 X129.097 Y108.472
G0 X130.429 Y104.99
G0 X130.429 Y104.005
G0 X159.318 Y103.143
G0 X159.318 Y81.107
G0 X120.954 Y81.122
G0 X122.003 Y86.542
G0 X119.423 Y88.23
G0 X116.844 Y89.303
;TYPE:WALL-INNER
G1 F2700 E27.6572
G1 F300 X116.948 Y89.316 E27.66068
G1 X116.96 Y89.316 E27.66108
G1 X117.456 Y89.349 E27.67762
G1 X117.561 Y89.349 E27.68111
G1 X118.065 Y89.314 E27.69791
G1 X118.17 Y89.302 E27.70143
G1 X118.687 Y89.198 E27.71897
G1 X118.787 Y89.17 E27.72242
G1 X119.269 Y89.005 E27.73937
G1 X119.365 Y88.965 E27.74283
G1 X119.826 Y88.736 E27.75995
G1 X119.92 Y88.682 E27.76355
G1 X120.404 Y88.353 E27.78302
G1 X120.82 Y87.99 E27.80138
G1 X120.893 Y87.911 E27.80496
G1 X121.22 Y87.537 E27.82148
G1 X121.284 Y87.454 E27.82497
G1 X121.291 Y87.442 E27.82543
G1 X121.574 Y87.017 E27.84241
G1 X121.624 Y86.927 E27.84584
G1 X121.628 Y86.917 E27.84619
G1 X121.847 Y86.472 E27.86269
G1 X121.887 Y86.375 E27.86618
G1 X122.053 Y85.884 E27.88342
G1 X122.078 Y85.784 E27.88685
G1 X122.178 Y85.281 E27.9039
G1 X122.191 Y85.177 E27.90739
G1 X122.191 Y85.165 E27.90779
G1 X122.224 Y84.669 E27.92432
G1 X122.224 Y84.564 E27.92781
G1 X122.189 Y84.06 E27.94462
G1 X122.177 Y83.955 E27.94813
G1 X122.073 Y83.438 E27.96567
G1 X122.045 Y83.338 E27.96913
G1 X121.88 Y82.856 E27.98607
G1 X121.84 Y82.76 E27.98953
G1 X121.611 Y82.299 E28.00665
G1 X121.557 Y82.205 E28.01026
G1 X121.228 Y81.721 E28.02972
G1 X120.878 Y81.32 E28.04743
G1 X120.865 Y81.305 E28.04809
G1 X120.786 Y81.232 E28.05166
G1 X120.435 Y80.925 E28.06717
G1 X120.786 Y80.925 E28.07101
G1 X120.865 Y80.925 E28.07221
G1 X120.885 Y80.925 E28.07286
G1 X159.5 Y80.925 E29.3572
G1 X159.5 Y103.325 E30.10222
G1 X120.893 Y103.325 E31.3863
G1 X120.82 Y103.325 E31.38873
G1 X120.436 Y103.325 E31.4015
G1 X120.82 Y102.99 E31.41036
G1 X120.869 Y102.937 E31.41258
G1 X120.893 Y102.911 E31.41376
G1 X121.22 Y102.537 E31.43028
G1 X121.284 Y102.454 E31.43377
G1 X121.291 Y102.442 E31.43423
G1 X121.574 Y102.017 E31.45122
G1 X121.624 Y101.927 E31.45464
G1 X121.628 Y101.917 E31.455
G1 X121.847 Y101.472 E31.47149
G1 X121.887 Y101.375 E31.47498
G1 X122.053 Y100.884 E31.49222
G1 X122.078 Y100.784 E31.49565
G1 X122.178 Y100.281 E31.51271
G1 X122.191 Y100.177 E31.51619
G1 X122.191 Y100.165 E31.51659
G1 X122.224 Y99.669 E31.53313
G1 X122.224 Y99.564 E31.53662
G1 X122.189 Y99.06 E31.55342
G1 X122.177 Y98.955 E31.55694
G1 X122.073 Y98.438 E31.57448
G1 X122.045 Y98.338 E31.57793
G1 X121.88 Y97.856 E31.59488
G1 X121.84 Y97.76 E31.59834
G1 X121.611 Y97.299 E31.61546
G1 X121.557 Y97.205 E31.61906
G1 X121.228 Y96.721 E31.63853
G1 X120.865 Y96.305 E31.65689
G1 X120.786 Y96.232 E31.66047
G1 X120.412 Y95.905 E31.67699
G1 X120.329 Y95.841 E31.68048
G1 X120.317 Y95.834 E31.68094
G1 X119.892 Y95.551 E31.69792
G1 X119.802 Y95.501 E31.70135
G1 X119.792 Y95.497 E31.7017
G1 X119.347 Y95.278 E31.7182
G1 X119.25 Y95.238 E31.72169
G1 X118.759 Y95.072 E31.73893
G1 X118.659 Y95.047 E31.74236
G1 X118.156 Y94.947 E31.75941
G1 X118.052 Y94.934 E31.7629
G1 X118.04 Y94.934 E31.7633
G1 X117.544 Y94.901 E31.77983
G1 X117.439 Y94.901 E31.78333
G1 X116.935 Y94.936 E31.80013
G1 X116.83 Y94.948 E31.80364
G1 X116.313 Y95.052 E31.82118
G1 X116.213 Y95.08 E31.82464
G1 X115.731 Y95.245 E31.84158
G1 X115.635 Y95.285 E31.84504
G1 X115.179 Y95.51 E31.86195
G1 X115.084 Y95.564 E31.86559
G1 X114.661 Y95.85 E31.88257
G1 X114.581 Y95.91 E31.8859
G1 X114.18 Y96.26 E31.9036
G1 X114.107 Y96.339 E31.90718
G1 X113.78 Y96.713 E31.9237
G1 X113.716 Y96.796 E31.92719
G1 X113.709 Y96.808 E31.92765
G1 X113.426 Y97.233 E31.94463
G1 X113.376 Y97.323 E31.94806
G1 X113.372 Y97.333 E31.94841
G1 X113.153 Y97.778 E31.96491
G1 X113.113 Y97.875 E31.9684
G1 X112.947 Y98.366 E31.98564
G1 X112.922 Y98.466 E31.98907
G1 X112.822 Y98.969 E32.00612
G1 X112.809 Y99.073 E32.00961
G1 X112.809 Y99.085 E32.01001
G1 X112.776 Y99.581 E32.02654
G1 X112.776 Y99.686 E32.03004
G1 X112.811 Y100.19 E32.04684
G1 X112.823 Y100.295 E32.05035
G1 X112.927 Y100.812 E32.06789
G1 X112.955 Y100.912 E32.07135
G1 X113.12 Y101.394 E32.08829
G1 X113.16 Y101.49 E32.09175
G1 X113.389 Y101.951 E32.10887
G1 X113.443 Y102.045 E32.11248
G1 X113.772 Y102.529 E32.13194
G1 X114.122 Y102.93 E32.14965
G1 X114.135 Y102.945 E32.15031
G1 X114.214 Y103.018 E32.15388
G1 X114.566 Y103.325 E32.16942
G1 X114.214 Y103.325 E32.17327
G1 X114.135 Y103.325 E32.17447
G1 X114.115 Y103.325 E32.17512
G1 X105.893 Y103.325 E32.44859
G1 X105.82 Y103.325 E32.45102
G1 X105.436 Y103.325 E32.46379
G1 X105.82 Y102.99 E32.47265
G1 X105.869 Y102.937 E32.47488
G1 X105.893 Y102.911 E32.47605
G1 X106.22 Y102.537 E32.49258
G1 X106.284 Y102.454 E32.49606
G1 X106.291 Y102.442 E32.49652
G1 X106.574 Y102.017 E32.51351
G1 X106.624 Y101.927 E32.51693
G1 X106.628 Y101.917 E32.51729
G1 X106.847 Y101.472 E32.53379
G1 X106.887 Y101.375 E32.53727
G1 X107.053 Y100.884 E32.55451
G1 X107.078 Y100.784 E32.55794
G1 X107.178 Y100.281 E32.575
G1 X107.191 Y100.177 E32.57849
G1 X107.191 Y100.165 E32.57888
G1 X107.224 Y99.669 E32.59542
G1 X107.224 Y99.564 E32.59891
G1 X107.189 Y99.06 E32.61571
G1 X107.177 Y98.955 E32.61923
G1 X107.073 Y98.438 E32.63677
G1 X107.045 Y98.338 E32.64022
G1 X106.88 Y97.856 E32.65717
G1 X106.84 Y97.76 E32.66063
G1 X106.611 Y97.299 E32.67775
G1 X106.557 Y97.205 E32.68135
G1 X106.228 Y96.721 E32.70082
G1 X105.865 Y96.305 E32.71918
G1 X105.786 Y96.232 E32.72276
G1 X105.412 Y95.905 E32.73928
G1 X105.329 Y95.841 E32.74277
G1 X105.317 Y95.834 E32.74323
G1 X104.892 Y95.551 E32.76021
G1 X104.802 Y95.501 E32.76364
G1 X104.792 Y95.497 E32.764
G1 X104.347 Y95.278 E32.78049
G1 X104.25 Y95.238 E32.78398
G1 X103.759 Y95.072 E32.80122
G1 X103.659 Y95.047 E32.80465
G1 X103.156 Y94.947 E32.82171
G1 X103.052 Y94.934 E32.82519
G1 X103.04 Y94.934 E32.82559
G1 X102.544 Y94.901 E32.84212
G1 X102.439 Y94.901 E32.84562
G1 X101.935 Y94.936 E32.86242
G1 X101.83 Y94.948 E32.86593
G1 X101.313 Y95.052 E32.88347
G1 X101.213 Y95.08 E32.88693
G1 X100.731 Y95.245 E32.90387
G1 X100.635 Y95.285 E32.90733
G1 X100.179 Y95.51 E32.92424
G1 X100.084 Y95.564 E32.92788
G1 X99.661 Y95.85 E32.94486
G1 X99.581 Y95.91 E32.94819
G1 X99.18 Y96.26 E32.96589
G1 X99.107 Y96.339 E32.96947
G1 X98.78 Y96.713 E32.98599
G1 X98.716 Y96.796 E32.98948
G1 X98.709 Y96.808 E32.98994
G1 X98.426 Y97.233 E33.00692
G1 X98.376 Y97.323 E33.01035
G1 X98.372 Y97.333 E33.01071
G1 X98.153 Y97.778 E33.0272
G1 X98.113 Y97.875 E33.03069
G1 X97.947 Y98.366 E33.04793
G1 X97.922 Y98.466 E33.05136
G1 X97.822 Y98.969 E33.06842
G1 X97.809 Y99.073 E33.0719
G1 X97.809 Y99.085 E33.0723
G1 X97.776 Y99.581 E33.08883
G1 X97.776 Y99.686 E33.09233
G1 X97.811 Y100.19 E33.10913
G1 X97.823 Y100.295 E33.11265
G1 X97.927 Y100.812 E33.13019
G1 X97.955 Y100.912 E33.13364
G1 X98.12 Y101.394 E33.15058
G1 X98.16 Y101.49 E33.15404
G1 X98.389 Y101.951 E33.17116
G1 X98.443 Y102.045 E33.17477
G1 X98.772 Y102.529 E33.19423
G1 X99.122 Y102.93 E33.21194
G1 X99.135 Y102.945 E33.2126
G1 X99.214 Y103.018 E33.21617
G1 X99.566 Y103.325 E33.23171
G1 X99.214 Y103.325 E33.23556
G1 X99.135 Y103.325 E33.23676
G1 X99.115 Y103.325 E33.23742
G1 X60.5 Y103.325 E34.52176
G1 X60.5 Y80.925 E35.26678
G1 X99.107 Y80.925 E36.55086
G1 X99.18 Y80.925 E36.55328
G1 X99.564 Y80.925 E36.56606
G1 X99.18 Y81.26 E36.57492
G1 X99.131 Y81.313 E36.57714
G1 X99.107 Y81.339 E36.57832
G1 X98.78 Y81.713 E36.59484
G1 X98.716 Y81.796 E36.59833
G1 X98.709 Y81.808 E36.59879
G1 X98.426 Y82.233 E36.61577
G1 X98.376 Y82.323 E36.6192
G1 X98.372 Y82.333 E36.61956
G1 X98.153 Y82.778 E36.63605
G1 X98.113 Y82.875 E36.63954
G1 X97.947 Y83.366 E36.65678
G1 X97.922 Y83.466 E36.66021
G1 X97.822 Y83.969 E36.67727
G1 X97.809 Y84.073 E36.68075
G1 X97.809 Y84.085 E36.68115
G1 X97.776 Y84.581 E36.69769
G1 X97.776 Y84.686 E36.70118
G1 X97.811 Y85.19 E36.71798
G1 X97.823 Y85.295 E36.7215
G1 X97.927 Y85.812 E36.73904
G1 X97.955 Y85.912 E36.74249
G1 X98.12 Y86.394 E36.75943
G1 X98.16 Y86.49 E36.76289
G1 X98.389 Y86.951 E36.78001
G1 X98.443 Y87.045 E36.78362
G1 X98.772 Y87.529 E36.80308
G1 X99.135 Y87.945 E36.82145
G1 X99.214 Y88.018 E36.82503
G1 X99.593 Y88.349 E36.84176
G1 X99.674 Y88.41 E36.84513
G1 X100.099 Y88.694 E36.86214
G1 X100.19 Y88.747 E36.86564
G1 X100.659 Y88.976 E36.883
G1 X100.755 Y89.014 E36.88643
G1 X101.241 Y89.178 E36.90349
G1 X101.341 Y89.203 E36.90692
G1 X101.844 Y89.303 E36.92398
G1 X101.948 Y89.316 E36.92746
G1 X101.96 Y89.316 E36.92786
G1 X102.456 Y89.349 E36.9444
G1 X102.561 Y89.349 E36.94789
G1 X103.065 Y89.314 E36.96469
G1 X103.17 Y89.302 E36.96821
G1 X103.687 Y89.198 E36.98575
G1 X103.787 Y89.17 E36.9892
G1 X104.269 Y89.005 E37.00614
G1 X104.365 Y88.965 E37.0096
G1 X104.826 Y88.736 E37.02672
G1 X104.92 Y88.682 E37.03033
G1 X105.404 Y88.353 E37.04979
G1 X105.82 Y87.99 E37.06816
G1 X105.893 Y87.911 E37.07174
G1 X106.22 Y87.537 E37.08826
