;FLAVOR:Marlin
;TIME:21010
;Filament used: 20.903m
;Layer height: 0.2
;MINX:64.728
;MINY:9.329
;MINZ:0.2
;MAXX:155.272
;MAXY:210.659
;MAXZ:12.2
;Generated with Cura_SteamEngine 4.11.0
M140 S60
M105
M190 S60
M104 S205
M105
M109 S205
M82 ;absolute extrusion mode
M201 X500.00 Y500.00 Z100.00 E5000.00 ;Setup machine max acceleration
M203 X500.00 Y500.00 Z10.00 E50.00 ;Setup machine max feedrate
M204 P500.00 R1000.00 T500.00 ;Setup Print/Retract/Travel acceleration
M205 X8.00 Y8.00 Z0.40 E5.00 ;Setup Jerk
M220 S100 ;Reset Feedrate
M221 S100 ;Reset Flowrate

G28 ;Home

G92 E0 ;Reset Extruder
G1 Z2.0 F3000 ;Move Z Axis up
G1 X10.1 Y20 Z0.28 F5000.0 ;Move to start position
G1 X10.1 Y200.0 Z0.28 F1500.0 E15 ;Draw the first line
G1 X10.4 Y200.0 Z0.28 F5000.0 ;Move to side a little
G1 X10.4 Y20 Z0.28 F1500.0 E30 ;Draw the second line
G92 E0 ;Reset Extruder
G1 Z2.0 F3000 ;Move Z Axis up

G92 E0
G92 E0
G1 F2700 E-4
;LAYER_COUNT:61
;LAYER:0
M107
G0 F6000 X96.852 Y24.401 Z0.2
;TYPE:SKIRT
G1 F2700 E0
G1 F300 X96.832 Y24.519 E0.00398
G1 X96.801 Y24.97 E0.01902
G1 X96.802 Y25.061 E0.02204
G1 X96.837 Y25.483 E0.03613
G1 X96.857 Y25.594 E0.03988
G1 X96.985 Y26.055 E0.05579
G1 X97.02 Y26.149 E0.05913
G1 X97.204 Y26.541 E0.07353
G1 X97.254 Y26.627 E0.07684
G1 X97.523 Y27.016 E0.09257
G1 X97.592 Y27.1 E0.09619
G1 X97.894 Y27.401 E0.11037
G1 X97.975 Y27.469 E0.11388
G1 X98.359 Y27.736 E0.12944
G1 X98.438 Y27.782 E0.13248
G1 X98.807 Y27.963 E0.14615
G1 X98.912 Y28.002 E0.14988
G1 X99.406 Y28.138 E0.16692
G1 X99.52 Y28.158 E0.17077
G1 X99.955 Y28.191 E0.18528
G1 X100.045 Y28.191 E0.18827
G1 X100.48 Y28.158 E0.20278
G1 X100.594 Y28.138 E0.20663
G1 X101.088 Y28.002 E0.22367
G1 X101.193 Y27.963 E0.2274
G1 X101.562 Y27.782 E0.24107
G1 X101.641 Y27.736 E0.24411
G1 X102.025 Y27.469 E0.25966
G1 X102.106 Y27.401 E0.26318
G1 X102.408 Y27.1 E0.27736
G1 X102.477 Y27.016 E0.28098
G1 X102.746 Y26.627 E0.29671
G1 X102.796 Y26.541 E0.30002
G1 X102.98 Y26.149 E0.31442
G1 X103.015 Y26.055 E0.31776
G1 X103.143 Y25.594 E0.33367
G1 X103.163 Y25.483 E0.33742
G1 X103.198 Y25.061 E0.3515
G1 X103.199 Y24.97 E0.35453
G1 X103.168 Y24.519 E0.36957
G1 X103.148 Y24.401 E0.37355
G1 X103.02 Y23.935 E0.38962
G1 X102.984 Y23.839 E0.39303
G1 X102.795 Y23.436 E0.40784
G1 X102.74 Y23.341 E0.41149
G1 X102.464 Y22.956 E0.42724
G1 X102.397 Y22.879 E0.43064
G1 X102.095 Y22.581 E0.44475
G1 X102.024 Y22.52 E0.44786
G1 X101.664 Y22.262 E0.46259
G1 X101.572 Y22.208 E0.46614
G1 X101.12 Y21.993 E0.48279
G1 X101.002 Y21.951 E0.48695
G1 X100.567 Y21.847 E0.50183
G1 X100.477 Y21.833 E0.50486
G1 X100.05 Y21.797 E0.51911
G1 X99.95 Y21.797 E0.52244
G1 X99.523 Y21.833 E0.53669
G1 X99.433 Y21.847 E0.53972
G1 X98.998 Y21.951 E0.5546
G1 X98.88 Y21.993 E0.55876
G1 X98.428 Y22.208 E0.57541
G1 X98.336 Y22.262 E0.57896
G1 X97.976 Y22.52 E0.59369
G1 X97.905 Y22.581 E0.5968
G1 X97.603 Y22.879 E0.61091
G1 X97.536 Y22.956 E0.61431
G1 X97.26 Y23.341 E0.63006
G1 X97.205 Y23.436 E0.63372
G1 X97.016 Y23.839 E0.64852
G1 X96.98 Y23.935 E0.65193
G1 X96.852 Y24.401 E0.668
G0 F6000 X97.238 Y24.507
G1 F300 X97.231 Y24.546 E0.66932
G1 X97.2 Y24.997 E0.68436
G1 X97.201 Y25.028 E0.68539
G1 X97.236 Y25.45 E0.69947
G1 X97.242 Y25.487 E0.70072
G1 X97.37 Y25.948 E0.71663
G1 X97.382 Y25.979 E0.71774
G1 X97.566 Y26.371 E0.73214
G1 X97.583 Y26.4 E0.73326
G1 X97.852 Y26.789 E0.74899
G1 X97.875 Y26.817 E0.75019
G1 X98.177 Y27.118 E0.76438
G1 X98.204 Y27.14 E0.76553
G1 X98.588 Y27.407 E0.78109
G1 X98.614 Y27.423 E0.78211
G1 X98.983 Y27.604 E0.79578
G1 X99.018 Y27.617 E0.79702
G1 X99.512 Y27.753 E0.81406
G1 X99.55 Y27.759 E0.81534
G1 X99.985 Y27.792 E0.82985
G1 X100.015 Y27.792 E0.83085
G1 X100.45 Y27.759 E0.84536
G1 X100.488 Y27.753 E0.84664
G1 X100.982 Y27.617 E0.86368
G1 X101.017 Y27.604 E0.86492
G1 X101.386 Y27.423 E0.87859
G1 X101.412 Y27.407 E0.8796
G1 X101.796 Y27.14 E0.89516
G1 X101.823 Y27.118 E0.89632
G1 X102.125 Y26.817 E0.9105
G1 X102.148 Y26.789 E0.91171
G1 X102.417 Y26.4 E0.92744
G1 X102.434 Y26.371 E0.92855
G1 X102.618 Y25.979 E0.94296
G1 X102.63 Y25.948 E0.94406
G1 X102.758 Y25.487 E0.95998
G1 X102.764 Y25.45 E0.96122
G1 X102.799 Y25.028 E0.97531
G1 X102.8 Y24.997 E0.97634
G1 X102.769 Y24.546 E0.99137
G1 X102.762 Y24.507 E0.99269
G1 X102.634 Y24.041 E1.00876
G1 X102.622 Y24.009 E1.0099
G1 X102.433 Y23.606 E1.02471
G1 X102.415 Y23.574 E1.02593
G1 X102.139 Y23.189 E1.04168
G1 X102.116 Y23.164 E1.04281
G1 X101.791 Y22.845 E1.05796
G1 X101.431 Y22.587 E1.07269
G1 X101.4 Y22.569 E1.07388
G1 X100.948 Y22.354 E1.09053
G1 X100.909 Y22.34 E1.09191
G1 X100.474 Y22.236 E1.10678
G1 X100.017 Y22.196 E1.12204
G1 X99.983 Y22.196 E1.12317
G1 X99.526 Y22.236 E1.13843
G1 X99.091 Y22.34 E1.15331
G1 X99.052 Y22.354 E1.15469
G1 X98.6 Y22.569 E1.17133
G1 X98.569 Y22.587 E1.17252
G1 X98.209 Y22.845 E1.18726
G1 X97.884 Y23.164 E1.2024
G1 X97.861 Y23.189 E1.20353
G1 X97.585 Y23.574 E1.21929
G1 X97.567 Y23.606 E1.22051
G1 X97.378 Y24.009 E1.23531
G1 X97.366 Y24.041 E1.23645
G1 X97.238 Y24.507 E1.25252
G0 F6000 X96.385 Y24.505
G1 F300 X96.483 Y24.027 E1.26875
G1 X96.643 Y23.567 E1.28495
G1 X96.86 Y23.138 E1.30094
G1 X97.134 Y22.737 E1.3171
G1 X97.468 Y22.369 E1.33362
G1 X97.831 Y22.061 E1.34946
G1 X98.255 Y21.792 E1.36616
G1 X98.69 Y21.589 E1.38213
G1 X99.146 Y21.448 E1.398
G1 X99.634 Y21.366 E1.41446
G1 X100.131 Y21.349 E1.431
G1 X100.616 Y21.398 E1.44721
G1 X101.067 Y21.507 E1.46264
G1 X101.544 Y21.69 E1.47964
G1 X101.961 Y21.919 E1.49546
G1 X102.362 Y22.214 E1.51202
G1 X102.701 Y22.542 E1.52771
G1 X103.005 Y22.926 E1.544
G1 X103.257 Y23.352 E1.56046
G1 X103.444 Y23.791 E1.57633
G1 X103.572 Y24.254 E1.59231
G1 X103.639 Y24.756 E1.60915
G1 X103.639 Y25.233 E1.62502
G1 X103.572 Y25.732 E1.64176
G1 X103.446 Y26.188 E1.6575
G1 X103.253 Y26.645 E1.674
G1 X103.005 Y27.062 E1.69013
G1 X102.706 Y27.44 E1.70616
G1 X102.353 Y27.782 E1.72251
G1 X101.971 Y28.063 E1.73828
G1 X101.529 Y28.305 E1.75504
G1 X101.079 Y28.478 E1.77108
G1 X100.619 Y28.589 E1.78682
G1 X100.118 Y28.64 E1.80357
G1 X99.631 Y28.622 E1.81978
G1 X99.148 Y28.541 E1.83607
G1 X98.69 Y28.399 E1.85201
G1 X98.242 Y28.191 E1.86844
G1 X97.837 Y27.931 E1.88445
G1 X97.464 Y27.615 E1.90071
G1 X97.126 Y27.24 E1.9175
G1 X96.86 Y26.85 E1.9332
G1 X96.647 Y26.428 E1.94892
G1 X96.481 Y25.951 E1.96572
G1 X96.385 Y25.482 E1.98164
G1 X96.354 Y24.994 E1.99791
G1 X96.385 Y24.505 E2.0142
G0 F6000 X95.988 Y24.45
G1 F300 X96.097 Y23.921 E2.03217
G1 X96.274 Y23.413 E2.05006
G1 X96.515 Y22.934 E2.0679
G1 X96.823 Y22.484 E2.08603
G1 X97.186 Y22.083 E2.10402
G1 X97.592 Y21.739 E2.12172
G1 X98.067 Y21.438 E2.14043
G1 X98.542 Y21.217 E2.15785
G1 X99.06 Y21.057 E2.17588
G1 X99.59 Y20.967 E2.19376
G1 X100.143 Y20.948 E2.21217
G1 X100.682 Y21.003 E2.23019
G1 X101.185 Y21.124 E2.24739
G1 X101.714 Y21.327 E2.26624
G1 X102.174 Y21.579 E2.28368
G1 X102.619 Y21.907 E2.30207
G1 X103.001 Y22.277 E2.31976
G1 X103.334 Y22.698 E2.33761
G1 X103.615 Y23.172 E2.35594
G1 X103.821 Y23.655 E2.3734
G1 X103.966 Y24.18 E2.39152
G1 X104.039 Y24.725 E2.40981
G1 X104.039 Y25.264 E2.42774
G1 X103.966 Y25.806 E2.44593
G1 X103.822 Y26.327 E2.4639
G1 X103.613 Y26.822 E2.48178
G1 X103.337 Y27.286 E2.49973
G1 X103.002 Y27.71 E2.5177
G1 X102.609 Y28.091 E2.53591
G1 X102.185 Y28.403 E2.55342
G1 X101.699 Y28.668 E2.57183
G1 X101.197 Y28.861 E2.58972
G1 X100.685 Y28.984 E2.60723
G1 X100.13 Y29.041 E2.62579
G1 X99.589 Y29.021 E2.64379
G1 X99.058 Y28.932 E2.6617
G1 X98.546 Y28.773 E2.67953
G1 X98.048 Y28.542 E2.69779
G1 X97.6 Y28.255 E2.71549
G1 X97.185 Y27.903 E2.73359
G1 X96.808 Y27.485 E2.75231
G1 X96.516 Y27.057 E2.76954
G1 X96.277 Y26.583 E2.7872
G1 X96.094 Y26.057 E2.80572
G1 X95.988 Y25.537 E2.82337
G1 X95.953 Y24.994 E2.84147
G1 X95.988 Y24.45 E2.8596
G1 F2700 E-1.1404
G0 F6000 X115.953 Y24.994
G1 F2700 E2.8596
G1 F300 X115.988 Y24.45 E2.87773
G1 X116.097 Y23.921 E2.8957
G1 X116.274 Y23.413 E2.91359
G1 X116.515 Y22.934 E2.93142
G1 X116.823 Y22.484 E2.94956
G1 X117.186 Y22.083 E2.96755
G1 X117.592 Y21.739 E2.98525
G1 X118.067 Y21.438 E3.00395
G1 X118.542 Y21.217 E3.02138
G1 X119.06 Y21.057 E3.03941
G1 X119.59 Y20.967 E3.05729
G1 X120.143 Y20.948 E3.07569
G1 X120.682 Y21.003 E3.09371
G1 X121.185 Y21.124 E3.11092
G1 X121.714 Y21.327 E3.12977
G1 X122.174 Y21.579 E3.14721
G1 X122.619 Y21.907 E3.1656
G1 X123.001 Y22.277 E3.18329
G1 X123.334 Y22.698 E3.20114
G1 X123.615 Y23.172 E3.21947
G1 X123.821 Y23.655 E3.23693
G1 X123.966 Y24.18 E3.25505
G1 X124.039 Y24.725 E3.27334
G1 X124.039 Y25.264 E3.29126
G1 X123.966 Y25.806 E3.30945
G1 X123.822 Y26.327 E3.32743
G1 X123.613 Y26.822 E3.3453
G1 X123.337 Y27.286 E3.36326
G1 X123.002 Y27.71 E3.38123
G1 X122.609 Y28.091 E3.39944
G1 X122.185 Y28.403 E3.41695
G1 X121.699 Y28.668 E3.43536
G1 X121.197 Y28.861 E3.45325
G1 X120.685 Y28.984 E3.47076
G1 X120.13 Y29.041 E3.48932
G1 X119.589 Y29.021 E3.50732
G1 X119.058 Y28.932 E3.52523
G1 X118.546 Y28.773 E3.54306
G1 X118.048 Y28.542 E3.56132
G1 X117.6 Y28.255 E3.57902
G1 X117.185 Y27.903 E3.59711
G1 X116.808 Y27.485 E3.61584
G1 X116.516 Y27.057 E3.63307
G1 X116.277 Y26.583 E3.65073
G1 X116.094 Y26.057 E3.66925
G1 X115.988 Y25.537 E3.6869
G1 X115.953 Y24.994 E3.705
G0 F6000 X116.354 Y24.994
G1 F300 X116.385 Y24.505 E3.72129
G1 X116.483 Y24.027 E3.73752
G1 X116.643 Y23.567 E3.75372
G1 X116.86 Y23.138 E3.76971
G1 X117.134 Y22.737 E3.78587
G1 X117.468 Y22.369 E3.8024
G1 X117.831 Y22.061 E3.81823
G1 X118.255 Y21.792 E3.83493
G1 X118.69 Y21.589 E3.8509
G1 X119.146 Y21.448 E3.86677
G1 X119.634 Y21.366 E3.88323
G1 X120.131 Y21.349 E3.89977
G1 X120.616 Y21.398 E3.91598
G1 X121.067 Y21.507 E3.93142
G1 X121.544 Y21.69 E3.94841
G1 X121.961 Y21.919 E3.96423
G1 X122.362 Y22.214 E3.98079
G1 X122.701 Y22.542 E3.99648
G1 X123.005 Y22.926 E4.01277
G1 X123.257 Y23.352 E4.02923
G1 X123.444 Y23.791 E4.0451
G1 X123.572 Y24.254 E4.06108
G1 X123.639 Y24.756 E4.07792
G1 X123.639 Y25.233 E4.09379
G1 X123.572 Y25.732 E4.11053
G1 X123.446 Y26.188 E4.12627
G1 X123.253 Y26.645 E4.14277
G1 X123.005 Y27.062 E4.1589
G1 X122.706 Y27.44 E4.17493
G1 X122.353 Y27.782 E4.19128
G1 X121.971 Y28.063 E4.20705
G1 X121.529 Y28.305 E4.22381
G1 X121.079 Y28.478 E4.23985
G1 X120.619 Y28.589 E4.25559
G1 X120.118 Y28.64 E4.27234
G1 X119.631 Y28.622 E4.28855
G1 X119.148 Y28.541 E4.30484
G1 X118.69 Y28.399 E4.32078
G1 X118.242 Y28.191 E4.33721
G1 X117.837 Y27.931 E4.35322
G1 X117.464 Y27.615 E4.36948
G1 X117.126 Y27.24 E4.38627
G1 X116.86 Y26.85 E4.40197
G1 X116.647 Y26.428 E4.41769
G1 X116.481 Y25.951 E4.43449
G1 X116.385 Y25.482 E4.45041
G1 X116.354 Y24.994 E4.46668
G0 F6000 X116.801 Y24.97
G1 F300 X116.802 Y25.061 E4.46971
G1 X116.837 Y25.483 E4.48379
G1 X116.857 Y25.594 E4.48754
G1 X116.985 Y26.055 E4.50345
G1 X117.02 Y26.149 E4.50679
G1 X117.204 Y26.541 E4.52119
G1 X117.254 Y26.627 E4.5245
G1 X117.523 Y27.016 E4.54023
G1 X117.592 Y27.1 E4.54385
G1 X117.894 Y27.401 E4.55803
G1 X117.975 Y27.469 E4.56155
G1 X118.359 Y27.736 E4.5771
G1 X118.438 Y27.782 E4.58014
G1 X118.807 Y27.963 E4.59381
G1 X118.912 Y28.002 E4.59754
G1 X119.406 Y28.138 E4.61458
G1 X119.52 Y28.158 E4.61843
G1 X119.955 Y28.191 E4.63294
G1 X120.045 Y28.191 E4.63593
G1 X120.48 Y28.158 E4.65044
G1 X120.594 Y28.138 E4.65429
G1 X121.088 Y28.002 E4.67133
G1 X121.193 Y27.963 E4.67506
G1 X121.562 Y27.782 E4.68873
G1 X121.641 Y27.736 E4.69177
G1 X122.025 Y27.469 E4.70733
G1 X122.106 Y27.401 E4.71084
G1 X122.408 Y27.1 E4.72502
G1 X122.477 Y27.016 E4.72864
G1 X122.746 Y26.627 E4.74437
G1 X122.796 Y26.541 E4.74768
G1 X122.98 Y26.149 E4.76208
G1 X123.015 Y26.055 E4.76542
G1 X123.143 Y25.594 E4.78133
G1 X123.163 Y25.483 E4.78508
G1 X123.198 Y25.061 E4.79917
G1 X123.199 Y24.97 E4.80219
G1 X123.168 Y24.519 E4.81723
G1 X123.148 Y24.401 E4.82121
G1 X123.02 Y23.935 E4.83728
G1 X122.984 Y23.839 E4.84069
G1 X122.795 Y23.436 E4.8555
G1 X122.74 Y23.341 E4.85915
G1 X122.464 Y22.956 E4.8749
G1 X122.397 Y22.879 E4.8783
G1 X122.095 Y22.581 E4.89241
G1 X122.024 Y22.52 E4.89552
G1 X121.664 Y22.262 E4.91026
G1 X121.572 Y22.208 E4.9138
G1 X121.12 Y21.993 E4.93045
G1 X121.002 Y21.951 E4.93462
G1 X120.567 Y21.847 E4.94949
G1 X120.477 Y21.833 E4.95252
G1 X120.05 Y21.797 E4.96677
G1 X119.95 Y21.797 E4.9701
G1 X119.523 Y21.833 E4.98435
G1 X119.433 Y21.847 E4.98738
G1 X118.998 Y21.951 E5.00226
G1 X118.88 Y21.993 E5.00642
G1 X118.428 Y22.208 E5.02307
G1 X118.336 Y22.262 E5.02662
G1 X117.976 Y22.52 E5.04135
G1 X117.905 Y22.581 E5.04446
G1 X117.603 Y22.879 E5.05858
G1 X117.536 Y22.956 E5.06197
G1 X117.26 Y23.341 E5.07773
G1 X117.205 Y23.436 E5.08138
G1 X117.016 Y23.839 E5.09618
G1 X116.98 Y23.935 E5.09959
G1 X116.852 Y24.401 E5.11567
G1 X116.832 Y24.519 E5.11965
G1 X116.801 Y24.97 E5.13468
G0 F6000 X117.2 Y24.997
G1 F300 X117.201 Y25.028 E5.13571
G1 X117.236 Y25.45 E5.1498
G1 X117.242 Y25.487 E5.15104
G1 X117.37 Y25.948 E5.16696
G1 X117.382 Y25.979 E5.16806
G1 X117.566 Y26.371 E5.18247
G1 X117.583 Y26.4 E5.18358
G1 X117.852 Y26.789 E5.19931
G1 X117.875 Y26.817 E5.20052
G1 X118.177 Y27.118 E5.2147
G1 X118.204 Y27.14 E5.21586
G1 X118.588 Y27.407 E5.23141
G1 X118.614 Y27.423 E5.23243
G1 X118.983 Y27.604 E5.2461
G1 X119.018 Y27.617 E5.24734
G1 X119.512 Y27.753 E5.26438
G1 X119.55 Y27.759 E5.26566
G1 X119.985 Y27.792 E5.28017
G1 X120.015 Y27.792 E5.28117
G1 X120.45 Y27.759 E5.29568
G1 X120.488 Y27.753 E5.29696
G1 X120.982 Y27.617 E5.314
G1 X121.017 Y27.604 E5.31524
G1 X121.386 Y27.423 E5.32891
G1 X121.412 Y27.407 E5.32993
G1 X121.796 Y27.14 E5.34549
G1 X121.823 Y27.118 E5.34664
G1 X122.125 Y26.817 E5.36083
G1 X122.148 Y26.789 E5.36203
G1 X122.417 Y26.4 E5.37776
G1 X122.434 Y26.371 E5.37888
G1 X122.618 Y25.979 E5.39328
G1 X122.63 Y25.948 E5.39439
G1 X122.758 Y25.487 E5.4103
G1 X122.764 Y25.45 E5.41155
G1 X122.799 Y25.028 E5.42563
G1 X122.8 Y24.997 E5.42666
G1 X122.769 Y24.546 E5.4417
G1 X122.762 Y24.507 E5.44302
G1 X122.634 Y24.041 E5.45909
G1 X122.622 Y24.009 E5.46023
G1 X122.433 Y23.606 E5.47503
G1 X122.415 Y23.574 E5.47625
G1 X122.139 Y23.189 E5.49201
G1 X122.116 Y23.164 E5.49314
G1 X121.791 Y22.845 E5.50828
G1 X121.431 Y22.587 E5.52301
G1 X121.4 Y22.569 E5.52421
G1 X120.948 Y22.354 E5.54085
G1 X120.909 Y22.34 E5.54223
G1 X120.474 Y22.236 E5.55711
G1 X120.017 Y22.196 E5.57237
G1 X119.983 Y22.196 E5.5735
G1 X119.526 Y22.236 E5.58876
G1 X119.091 Y22.34 E5.60363
G1 X119.052 Y22.354 E5.60501
G1 X118.6 Y22.569 E5.62166
G1 X118.569 Y22.587 E5.62285
G1 X118.209 Y22.845 E5.63758
G1 X117.884 Y23.164 E5.65273
G1 X117.861 Y23.189 E5.65386
G1 X117.585 Y23.574 E5.66961
G1 X117.567 Y23.606 E5.67083
G1 X117.378 Y24.009 E5.68564
G1 X117.366 Y24.041 E5.68678
G1 X117.238 Y24.507 E5.70285
G1 X117.231 Y24.546 E5.70417
G1 X117.2 Y24.997 E5.7192
G1 F2700 E1.7192
G0 F6000 X117.419 Y40.278
G0 X138.647 Y40.347
G0 X138.647 Y179.641
G0 X119.426 Y179.708
G0 X119.59 Y190.967
G1 F2700 E5.7192
G1 F300 X120.143 Y190.948 E5.73761
G1 X120.682 Y191.003 E5.75563
G1 X121.185 Y191.124 E5.77283
G1 X121.714 Y191.327 E5.79168
G1 X122.174 Y191.579 E5.80912
G1 X122.619 Y191.907 E5.82751
G1 X123.001 Y192.277 E5.8452
G1 X123.334 Y192.698 E5.86305
G1 X123.615 Y193.172 E5.88138
G1 X123.821 Y193.655 E5.89884
G1 X123.966 Y194.18 E5.91696
G1 X124.039 Y194.725 E5.93525
G1 X124.039 Y195.264 E5.95318
G1 X123.966 Y195.806 E5.97137
G1 X123.822 Y196.327 E5.98934
G1 X123.613 Y196.822 E6.00721
G1 X123.337 Y197.286 E6.02517
G1 X123.002 Y197.71 E6.04314
G1 X122.609 Y198.091 E6.06135
G1 X122.185 Y198.403 E6.07886
G1 X121.699 Y198.668 E6.09727
G1 X121.197 Y198.861 E6.11516
G1 X120.685 Y198.984 E6.13267
G1 X120.13 Y199.041 E6.15123
G1 X119.589 Y199.021 E6.16923
